icons/triangle-chevron-right.svg

<svg xmlns="http://www.w3.org/2000/svg" width="24" height="24" viewBox="0 0 24 24">
  <path d="M9.37135227,3.70432092 C10.1698214,2.25255887 11.9939942,1.72296031 13.4457562,2.52142944 C13.9442354,2.79559297 14.3544842,3.20584177 14.6286477,3.70432092 L14.6286477,3.70432092 L22.2461053,17.5542438 C23.0445744,19.0060058 22.5149759,20.8301786 21.0632138,21.6286477 C20.6202789,21.8722619 20.1229665,22 19.6174576,22 L19.6174576,22 L4.38254244,22 C2.72568819,22 1.38254244,20.6568542 1.38254244,19 C1.38254244,18.4944911 1.5102805,17.9971787 1.75389472,17.5542438 L1.75389472,17.5542438 Z M11.6128994,10.2097046 C11.2206082,9.90467972 10.6533772,9.93240926 10.2928932,10.2928932 L10.2928932,10.2928932 L10.2097046,10.3871006 C9.90467972,10.7793918 9.93240926,11.3466228 10.2928932,11.7071068 L10.2928932,11.7071068 L12.585,14 L10.2928932,16.2928932 L10.2097046,16.3871006 C9.90467972,16.7793918 9.93240926,17.3466228 10.2928932,17.7071068 C10.6834175,18.0976311 11.3165825,18.0976311 11.7071068,17.7071068 L11.7071068,17.7071068 L14.7071068,14.7071068 L14.7902954,14.6128994 C15.0953203,14.2206082 15.0675907,13.6533772 14.7071068,13.2928932 L14.7071068,13.2928932 L11.7071068,10.2928932 Z"/>
</svg>

<svg xmlns="http://www.w3.org/2000/svg" viewBox="0 0 24 24">
  <path d="M9.37 3.7a3 3 0 0 1 5.26 0l7.62 13.85A3 3 0 0 1 19.62 22H4.38a3 3 0 0 1-2.63-4.45zm2.24 6.51a1 1 0 0 0-1.32.08l-.08.1a1 1 0 0 0 .08 1.32L12.6 14l-2.3 2.3-.08.09a1 1 0 0 0 1.5 1.32l3-3 .08-.1a1 1 0 0 0-.08-1.32l-3-3z"/>
</svg>
